X: 7
T: Acem Seyir
C: Şefik Gürmeriç
O: Turkey
F: http://compmusic.upf.edu/node/140
N: acem--seyir--sofyan--1--sefik_gurmeric
N: makam= acem
N: form= seyir
N: usul= sofyan = 4/4
M: 4/4
L: 1/16
K: C _1/4B   
Q: 1/4=60
%%MIDI tuningsystem comma53
A4 f12  | e2f2 g2a2 g2f2 e2d2  | dfed c2_2/4B2 c4 d4  | \
w:   |   |   | 
e2f2 e2g2 f8  | 
w:   | 
z4 c2d2 c4 d4  | e2f2 e2f2 g4 a4  | a2g2 g2f2 f2e2 e2d2  | \
w:   |   |   | 
d2c2 dfed d8  | 
w:   | 
z4 d2_7/8e2 d4 g4  | ^3/4f2a2 g2f2 f2_7/8e2 e2d2  | \
w:   |   | 
d^3/4f_7/8ed c2_2/4B2 c4 d2=e2  | 
w:   | 
f12 e2f2  | g2a4g2 g2f2 f2e2  | e2d4e2 d4 c2_2/4B2  | \
w:   |   |   | 
c2_2/4B2 e2d2 d2c4B2  | 
w:   | 
_2/4B2A2 AcBA A8  | |


